src/view/frontend/web/svg/heroicons/solid/truck.svg

<svg viewBox="0 0 20 20" fill="currentColor" xmlns="http://www.w3.org/2000/svg">
<path d="M8 16.5C8 17.3284 7.32843 18 6.5 18C5.67157 18 5 17.3284 5 16.5C5 15.6716 5.67157 15 6.5 15C7.32843 15 8 15.6716 8 16.5Z" />
<path d="M15 16.5C15 17.3284 14.3284 18 13.5 18C12.6716 18 12 17.3284 12 16.5C12 15.6716 12.6716 15 13.5 15C14.3284 15 15 15.6716 15 16.5Z" />
<path d="M3 4C2.44772 4 2 4.44772 2 5V15C2 15.5523 2.44772 16 3 16H4.05001C4.28164 14.8589 5.29052 14 6.5 14C7.70948 14 8.71836 14.8589 8.94999 16H10C10.5523 16 11 15.5523 11 15V5C11 4.44772 10.5523 4 10 4H3Z" />
<path d="M14 7C13.4477 7 13 7.44772 13 8V14.05C13.1616 14.0172 13.3288 14 13.5 14C14.7095 14 15.7184 14.8589 15.95 16H17C17.5523 16 18 15.5523 18 15V10C18 9.73478 17.8946 9.48043 17.7071 9.29289L15.7071 7.29289C15.5196 7.10536 15.2652 7 15 7H14Z" />
</svg>

<svg xmlns="http://www.w3.org/2000/svg" fill="currentColor" viewBox="0 0 20 20"><path d="M8 16.5a1.5 1.5 0 1 1-3 0 1.5 1.5 0 0 1 3 0ZM15 16.5a1.5 1.5 0 1 1-3 0 1.5 1.5 0 0 1 3 0Z"/><path d="M3 4a1 1 0 0 0-1 1v10a1 1 0 0 0 1 1h1.05a2.5 2.5 0 0 1 4.9 0H10a1 1 0 0 0 1-1V5a1 1 0 0 0-1-1H3ZM14 7a1 1 0 0 0-1 1v6.05A2.5 2.5 0 0 1 15.95 16H17a1 1 0 0 0 1-1v-5a1 1 0 0 0-.293-.707l-2-2A1 1 0 0 0 15 7h-1Z"/></svg>
